X:1
T:Return From Fingal
L:1/8
Q:1/4=120
M:2/2
K:G
|: e2 cB AB cd | e2 cB A3 e | d>cBd g3 d    |  e3 d  efga    |
   e2 cB AB cd | e2 cB A3 e | d>cBd g3 d    |1 e2 B2 A4     :|2 e2 A2 A3 e ||
|: b2 a2 a2 gf | e2 d2 g3 d | e3    d  g3 d |  e3 d  efga    |
   b2 a2 a2 gf | e2 d2 g3 e | d>cBd g2 de   |1 B2 A2 A3   e :|2 B2 A2 A4    |]


